X: 3037
M: C|
L: 1/8
K: C
gf |\
e2f2 d2g2 | e2c2 c2fg |\
a2gf e3f | g2gf edcB |\
d2e2 f3g | e2c2 f3f |\
g2a2 g3f | f2(fg) a2a2 |\
e2(ef) g2g2 | d2g2 g2g2 |\
c2A2 d2dc | B2G2 ge fg |\
agfe d3c | c6 |]


